images/50418620.svg

<?xml version="1.0" encoding="UTF-8"?>
<svg xmlns="http://www.w3.org/2000/svg" xmlns:xlink="http://www.w3.org/1999/xlink" width="300pt" height="300pt" viewBox="0 0 300 300" version="1.1">
<defs>
<g>
<symbol overflow="visible" id="glyph0-0">
<path style="stroke:none;" d="M 0.453125 1.59375 L 0.453125 -6.34375 L 4.953125 -6.34375 L 4.953125 1.59375 Z M 0.953125 1.09375 L 4.453125 1.09375 L 4.453125 -5.84375 L 0.953125 -5.84375 Z M 0.953125 1.09375 "/>
</symbol>
<symbol overflow="visible" id="glyph0-1">
<path style="stroke:none;" d="M 0.890625 -6.5625 L 4.65625 -6.5625 L 4.65625 -5.8125 L 1.765625 -5.8125 L 1.765625 -3.875 L 4.375 -3.875 L 4.375 -3.140625 L 1.765625 -3.140625 L 1.765625 0 L 0.890625 0 Z M 0.890625 -6.5625 "/>
</symbol>
<symbol overflow="visible" id="glyph0-2">
<path style="stroke:none;" d="M 0.890625 -6.5625 L 2.078125 -6.5625 L 4.984375 -1.078125 L 4.984375 -6.5625 L 5.84375 -6.5625 L 5.84375 0 L 4.65625 0 L 1.75 -5.484375 L 1.75 0 L 0.890625 0 Z M 0.890625 -6.5625 "/>
</symbol>
<symbol overflow="visible" id="glyph0-3">
<path style="stroke:none;" d="M 0.890625 -6.5625 L 1.765625 -6.5625 L 1.765625 -3.875 L 5 -3.875 L 5 -6.5625 L 5.890625 -6.5625 L 5.890625 0 L 5 0 L 5 -3.125 L 1.765625 -3.125 L 1.765625 0 L 0.890625 0 Z M 0.890625 -6.5625 "/>
</symbol>
<symbol overflow="visible" id="glyph0-4">
<path style="stroke:none;" d="M 3.546875 -5.953125 C 2.898438 -5.953125 2.382812 -5.710938 2 -5.234375 C 1.625 -4.753906 1.4375 -4.101562 1.4375 -3.28125 C 1.4375 -2.445312 1.625 -1.789062 2 -1.3125 C 2.382812 -0.832031 2.898438 -0.59375 3.546875 -0.59375 C 4.191406 -0.59375 4.703125 -0.832031 5.078125 -1.3125 C 5.453125 -1.789062 5.640625 -2.445312 5.640625 -3.28125 C 5.640625 -4.101562 5.453125 -4.753906 5.078125 -5.234375 C 4.703125 -5.710938 4.191406 -5.953125 3.546875 -5.953125 Z M 3.546875 -6.6875 C 4.460938 -6.6875 5.195312 -6.375 5.75 -5.75 C 6.300781 -5.132812 6.578125 -4.3125 6.578125 -3.28125 C 6.578125 -2.238281 6.300781 -1.410156 5.75 -0.796875 C 5.195312 -0.179688 4.460938 0.125 3.546875 0.125 C 2.617188 0.125 1.878906 -0.179688 1.328125 -0.796875 C 0.773438 -1.410156 0.5 -2.238281 0.5 -3.28125 C 0.5 -4.3125 0.773438 -5.132812 1.328125 -5.75 C 1.878906 -6.375 2.617188 -6.6875 3.546875 -6.6875 Z M 3.546875 -6.6875 "/>
</symbol>
</g>
</defs>
<g id="surface27217">
<rect x="0" y="0" width="300" height="300" style="fill:rgb(100%,100%,100%);fill-opacity:1;stroke:none;"/>
<path style="fill:none;stroke-width:1.2;stroke-linecap:butt;stroke-linejoin:miter;stroke:rgb(20%,80%,80%);stroke-opacity:1;stroke-miterlimit:10;" d="M 264.75 151.878906 L 255.589844 148.25 "/>
<path style="fill:none;stroke-width:1.2;stroke-linecap:butt;stroke-linejoin:miter;stroke:rgb(0%,0%,0%);stroke-opacity:1;stroke-miterlimit:10;" d="M 255.589844 148.25 L 246.433594 144.621094 "/>
<path style=" stroke:none;fill-rule:nonzero;fill:rgb(100%,100%,100%);fill-opacity:1;" d="M 261.75 146.378906 L 267.75 146.378906 L 267.75 157.378906 L 261.75 157.378906 Z M 261.75 146.378906 "/>
<g style="fill:rgb(20%,80%,80%);fill-opacity:1;">
  <use xlink:href="#glyph0-1" x="261.75" y="155.041992"/>
</g>
<path style="fill:none;stroke-width:1.2;stroke-linecap:butt;stroke-linejoin:miter;stroke:rgb(0%,0%,0%);stroke-opacity:1;stroke-miterlimit:10;" d="M 246.433594 144.621094 L 242.804688 153.777344 "/>
<path style="fill:none;stroke-width:1.2;stroke-linecap:butt;stroke-linejoin:miter;stroke:rgb(20%,80%,80%);stroke-opacity:1;stroke-miterlimit:10;" d="M 242.804688 153.777344 L 239.175781 162.9375 "/>
<path style="fill:none;stroke-width:1.2;stroke-linecap:butt;stroke-linejoin:miter;stroke:rgb(0%,0%,0%);stroke-opacity:1;stroke-miterlimit:10;" d="M 246.433594 144.621094 L 250.0625 135.460938 "/>
<path style="fill:none;stroke-width:1.2;stroke-linecap:butt;stroke-linejoin:miter;stroke:rgb(20%,80%,80%);stroke-opacity:1;stroke-miterlimit:10;" d="M 250.0625 135.460938 L 253.691406 126.304688 "/>
<path style="fill:none;stroke-width:1.2;stroke-linecap:butt;stroke-linejoin:miter;stroke:rgb(0%,0%,0%);stroke-opacity:1;stroke-miterlimit:10;" d="M 246.433594 144.621094 L 228.117188 137.363281 "/>
<path style=" stroke:none;fill-rule:nonzero;fill:rgb(100%,100%,100%);fill-opacity:1;" d="M 233.175781 157.4375 L 239.175781 157.4375 L 239.175781 168.4375 L 233.175781 168.4375 Z M 233.175781 157.4375 "/>
<g style="fill:rgb(20%,80%,80%);fill-opacity:1;">
  <use xlink:href="#glyph0-1" x="233.175781" y="166.100586"/>
</g>
<path style=" stroke:none;fill-rule:nonzero;fill:rgb(100%,100%,100%);fill-opacity:1;" d="M 250.691406 120.804688 L 256.691406 120.804688 L 256.691406 131.804688 L 250.691406 131.804688 Z M 250.691406 120.804688 "/>
<g style="fill:rgb(20%,80%,80%);fill-opacity:1;">
  <use xlink:href="#glyph0-1" x="250.691406" y="129.467773"/>
</g>
<path style="fill:none;stroke-width:1.2;stroke-linecap:butt;stroke-linejoin:miter;stroke:rgb(0%,0%,0%);stroke-opacity:1;stroke-miterlimit:10;" d="M 228.117188 137.363281 L 212.671875 149.59375 "/>
<path style="fill:none;stroke-width:1.2;stroke-linecap:butt;stroke-linejoin:miter;stroke:rgb(0%,0%,0%);stroke-opacity:1;stroke-miterlimit:10;" d="M 223.695312 134.953125 L 211.339844 144.738281 "/>
<path style="fill:none;stroke-width:1.2;stroke-linecap:butt;stroke-linejoin:miter;stroke:rgb(0%,0%,0%);stroke-opacity:1;stroke-miterlimit:10;" d="M 225.246094 117.871094 L 228.117188 137.363281 "/>
<path style="fill:none;stroke-width:1.2;stroke-linecap:butt;stroke-linejoin:miter;stroke:rgb(0%,0%,0%);stroke-opacity:1;stroke-miterlimit:10;" d="M 212.671875 149.59375 L 194.355469 142.335938 "/>
<path style="fill:none;stroke-width:1.2;stroke-linecap:butt;stroke-linejoin:miter;stroke:rgb(0%,0%,0%);stroke-opacity:1;stroke-miterlimit:10;" d="M 194.355469 142.335938 L 186.632812 148.453125 "/>
<path style="fill:none;stroke-width:1.2;stroke-linecap:butt;stroke-linejoin:miter;stroke:rgb(0%,0%,100%);stroke-opacity:1;stroke-miterlimit:10;" d="M 186.632812 148.453125 L 178.910156 154.570312 "/>
<path style="fill:none;stroke-width:1.2;stroke-linecap:butt;stroke-linejoin:miter;stroke:rgb(0%,0%,0%);stroke-opacity:1;stroke-miterlimit:10;" d="M 194.355469 142.335938 L 191.484375 122.84375 "/>
<path style="fill:none;stroke-width:1.2;stroke-linecap:butt;stroke-linejoin:miter;stroke:rgb(0%,0%,0%);stroke-opacity:1;stroke-miterlimit:10;" d="M 198.65625 139.710938 L 196.355469 124.117188 "/>
<path style="fill:none;stroke-width:1.2;stroke-linecap:butt;stroke-linejoin:miter;stroke:rgb(0%,0%,100%);stroke-opacity:1;stroke-miterlimit:10;" d="M 178.910156 154.570312 L 169.753906 150.941406 "/>
<path style="fill:none;stroke-width:1.2;stroke-linecap:butt;stroke-linejoin:miter;stroke:rgb(0%,0%,0%);stroke-opacity:1;stroke-miterlimit:10;" d="M 169.753906 150.941406 L 160.59375 147.308594 "/>
<path style=" stroke:none;fill-rule:nonzero;fill:rgb(100%,100%,100%);fill-opacity:1;" d="M 171.910156 149.070312 L 185.910156 149.070312 L 185.910156 160.070312 L 171.910156 160.070312 Z M 171.910156 149.070312 "/>
<g style="fill:rgb(0%,0%,100%);fill-opacity:1;">
  <use xlink:href="#glyph0-2" x="171.910156" y="157.733398"/>
  <use xlink:href="#glyph0-3" x="178.887695" y="157.733398"/>
</g>
<path style="fill:none;stroke-width:1.2;stroke-linecap:butt;stroke-linejoin:miter;stroke:rgb(0%,0%,0%);stroke-opacity:1;stroke-miterlimit:10;" d="M 162.886719 146.972656 L 161.453125 137.226562 "/>
<path style="fill:none;stroke-width:1.2;stroke-linecap:butt;stroke-linejoin:miter;stroke:rgb(100%,0%,0%);stroke-opacity:1;stroke-miterlimit:10;" d="M 161.453125 137.226562 L 160.015625 127.480469 "/>
<path style="fill:none;stroke-width:1.2;stroke-linecap:butt;stroke-linejoin:miter;stroke:rgb(0%,0%,0%);stroke-opacity:1;stroke-miterlimit:10;" d="M 158.300781 147.648438 L 156.863281 137.902344 "/>
<path style="fill:none;stroke-width:1.2;stroke-linecap:butt;stroke-linejoin:miter;stroke:rgb(100%,0%,0%);stroke-opacity:1;stroke-miterlimit:10;" d="M 156.863281 137.902344 L 155.429688 128.15625 "/>
<path style="fill:none;stroke-width:1.2;stroke-linecap:butt;stroke-linejoin:miter;stroke:rgb(0%,0%,0%);stroke-opacity:1;stroke-miterlimit:10;" d="M 160.59375 147.308594 L 145.148438 159.542969 "/>
<path style=" stroke:none;fill-rule:nonzero;fill:rgb(100%,100%,100%);fill-opacity:1;" d="M 153.722656 122.320312 L 161.722656 122.320312 L 161.722656 133.320312 L 153.722656 133.320312 Z M 153.722656 122.320312 "/>
<g style="fill:rgb(100%,0%,0%);fill-opacity:1;">
  <use xlink:href="#glyph0-4" x="153.722656" y="130.983398"/>
</g>
<path style="fill:none;stroke-width:1.2;stroke-linecap:butt;stroke-linejoin:miter;stroke:rgb(0%,0%,0%);stroke-opacity:1;stroke-miterlimit:10;" d="M 145.148438 159.542969 L 126.832031 152.285156 "/>
<path style="fill:none;stroke-width:1.2;stroke-linecap:butt;stroke-linejoin:miter;stroke:rgb(0%,0%,0%);stroke-opacity:1;stroke-miterlimit:10;" d="M 141.609375 163.128906 L 126.957031 157.320312 "/>
<path style="fill:none;stroke-width:1.2;stroke-linecap:butt;stroke-linejoin:miter;stroke:rgb(0%,0%,0%);stroke-opacity:1;stroke-miterlimit:10;" d="M 148.019531 179.035156 L 145.148438 159.542969 "/>
<path style="fill:none;stroke-width:1.2;stroke-linecap:butt;stroke-linejoin:miter;stroke:rgb(0%,0%,0%);stroke-opacity:1;stroke-miterlimit:10;" d="M 126.832031 152.285156 L 111.386719 164.519531 "/>
<path style="fill:none;stroke-width:1.2;stroke-linecap:butt;stroke-linejoin:miter;stroke:rgb(0%,0%,0%);stroke-opacity:1;stroke-miterlimit:10;" d="M 111.386719 164.519531 L 93.070312 157.257812 "/>
<path style="fill:none;stroke-width:1.2;stroke-linecap:butt;stroke-linejoin:miter;stroke:rgb(0%,0%,0%);stroke-opacity:1;stroke-miterlimit:10;" d="M 111.386719 164.519531 L 114.261719 184.011719 "/>
<path style="fill:none;stroke-width:1.2;stroke-linecap:butt;stroke-linejoin:miter;stroke:rgb(0%,0%,0%);stroke-opacity:1;stroke-miterlimit:10;" d="M 116.261719 165.792969 L 118.558594 181.386719 "/>
<path style="fill:none;stroke-width:1.2;stroke-linecap:butt;stroke-linejoin:miter;stroke:rgb(0%,0%,0%);stroke-opacity:1;stroke-miterlimit:10;" d="M 91.632812 155.441406 L 83.910156 161.558594 "/>
<path style="fill:none;stroke-width:1.2;stroke-linecap:butt;stroke-linejoin:miter;stroke:rgb(100%,0%,0%);stroke-opacity:1;stroke-miterlimit:10;" d="M 83.910156 161.558594 L 76.1875 167.675781 "/>
<path style="fill:none;stroke-width:1.2;stroke-linecap:butt;stroke-linejoin:miter;stroke:rgb(0%,0%,0%);stroke-opacity:1;stroke-miterlimit:10;" d="M 94.511719 159.074219 L 86.789062 165.191406 "/>
<path style="fill:none;stroke-width:1.2;stroke-linecap:butt;stroke-linejoin:miter;stroke:rgb(100%,0%,0%);stroke-opacity:1;stroke-miterlimit:10;" d="M 86.789062 165.191406 L 79.066406 171.308594 "/>
<path style="fill:none;stroke-width:1.2;stroke-linecap:butt;stroke-linejoin:miter;stroke:rgb(0%,0%,0%);stroke-opacity:1;stroke-miterlimit:10;" d="M 93.070312 157.257812 L 91.636719 147.511719 "/>
<path style="fill:none;stroke-width:1.2;stroke-linecap:butt;stroke-linejoin:miter;stroke:rgb(0%,0%,100%);stroke-opacity:1;stroke-miterlimit:10;" d="M 91.636719 147.511719 L 90.199219 137.765625 "/>
<path style=" stroke:none;fill-rule:nonzero;fill:rgb(100%,100%,100%);fill-opacity:1;" d="M 69.625 163.992188 L 77.625 163.992188 L 77.625 174.992188 L 69.625 174.992188 Z M 69.625 163.992188 "/>
<g style="fill:rgb(100%,0%,0%);fill-opacity:1;">
  <use xlink:href="#glyph0-4" x="69.625" y="172.655273"/>
</g>
<path style="fill:none;stroke-width:1.2;stroke-linecap:butt;stroke-linejoin:miter;stroke:rgb(0%,0%,100%);stroke-opacity:1;stroke-miterlimit:10;" d="M 90.199219 137.765625 L 81.042969 134.136719 "/>
<path style="fill:none;stroke-width:1.2;stroke-linecap:butt;stroke-linejoin:miter;stroke:rgb(0%,0%,0%);stroke-opacity:1;stroke-miterlimit:10;" d="M 81.042969 134.136719 L 71.882812 130.507812 "/>
<path style=" stroke:none;fill-rule:nonzero;fill:rgb(100%,100%,100%);fill-opacity:1;" d="M 83.199219 132.265625 L 97.199219 132.265625 L 97.199219 143.265625 L 83.199219 143.265625 Z M 83.199219 132.265625 "/>
<g style="fill:rgb(0%,0%,100%);fill-opacity:1;">
  <use xlink:href="#glyph0-2" x="83.199219" y="140.928711"/>
  <use xlink:href="#glyph0-3" x="90.176758" y="140.928711"/>
</g>
<path style="fill:none;stroke-width:1.2;stroke-linecap:butt;stroke-linejoin:miter;stroke:rgb(0%,0%,0%);stroke-opacity:1;stroke-miterlimit:10;" d="M 71.882812 130.507812 L 69.011719 111.015625 "/>
<path style="fill:none;stroke-width:1.2;stroke-linecap:butt;stroke-linejoin:miter;stroke:rgb(0%,0%,0%);stroke-opacity:1;stroke-miterlimit:10;" d="M 67.007812 129.234375 L 64.710938 113.640625 "/>
<path style="fill:none;stroke-width:1.2;stroke-linecap:butt;stroke-linejoin:miter;stroke:rgb(0%,0%,0%);stroke-opacity:1;stroke-miterlimit:10;" d="M 56.4375 142.742188 L 71.882812 130.507812 "/>
<path style="fill:none;stroke-width:1.2;stroke-linecap:butt;stroke-linejoin:miter;stroke:rgb(0%,0%,0%);stroke-opacity:1;stroke-miterlimit:10;" d="M 69.011719 111.015625 L 59.851562 107.386719 "/>
<path style="fill:none;stroke-width:1.2;stroke-linecap:butt;stroke-linejoin:miter;stroke:rgb(0%,0%,100%);stroke-opacity:1;stroke-miterlimit:10;" d="M 59.851562 107.386719 L 50.695312 103.757812 "/>
<path style="fill:none;stroke-width:1.2;stroke-linecap:butt;stroke-linejoin:miter;stroke:rgb(0%,0%,100%);stroke-opacity:1;stroke-miterlimit:10;" d="M 50.695312 103.757812 L 42.972656 109.875 "/>
<path style="fill:none;stroke-width:1.2;stroke-linecap:butt;stroke-linejoin:miter;stroke:rgb(0%,0%,0%);stroke-opacity:1;stroke-miterlimit:10;" d="M 42.972656 109.875 L 35.25 115.988281 "/>
<path style="fill:none;stroke-width:1.2;stroke-linecap:butt;stroke-linejoin:miter;stroke:rgb(0%,0%,100%);stroke-opacity:1;stroke-miterlimit:10;" d="M 52.027344 108.613281 L 45.851562 113.507812 "/>
<path style="fill:none;stroke-width:1.2;stroke-linecap:butt;stroke-linejoin:miter;stroke:rgb(0%,0%,0%);stroke-opacity:1;stroke-miterlimit:10;" d="M 45.851562 113.507812 L 39.671875 118.402344 "/>
<path style=" stroke:none;fill-rule:nonzero;fill:rgb(100%,100%,100%);fill-opacity:1;" d="M 47.695312 98.257812 L 54.695312 98.257812 L 54.695312 109.257812 L 47.695312 109.257812 Z M 47.695312 98.257812 "/>
<g style="fill:rgb(0%,0%,100%);fill-opacity:1;">
  <use xlink:href="#glyph0-2" x="47.695312" y="106.920898"/>
</g>
<path style="fill:none;stroke-width:1.2;stroke-linecap:butt;stroke-linejoin:miter;stroke:rgb(0%,0%,0%);stroke-opacity:1;stroke-miterlimit:10;" d="M 35.25 115.988281 L 36.6875 125.734375 "/>
<path style="fill:none;stroke-width:1.2;stroke-linecap:butt;stroke-linejoin:miter;stroke:rgb(0%,0%,100%);stroke-opacity:1;stroke-miterlimit:10;" d="M 36.6875 125.734375 L 38.121094 135.480469 "/>
<path style="fill:none;stroke-width:1.2;stroke-linecap:butt;stroke-linejoin:miter;stroke:rgb(0%,0%,100%);stroke-opacity:1;stroke-miterlimit:10;" d="M 38.121094 135.480469 L 47.28125 139.113281 "/>
<path style="fill:none;stroke-width:1.2;stroke-linecap:butt;stroke-linejoin:miter;stroke:rgb(0%,0%,0%);stroke-opacity:1;stroke-miterlimit:10;" d="M 47.28125 139.113281 L 56.4375 142.742188 "/>
<path style="fill:none;stroke-width:1.2;stroke-linecap:butt;stroke-linejoin:miter;stroke:rgb(0%,0%,100%);stroke-opacity:1;stroke-miterlimit:10;" d="M 41.660156 131.898438 L 48.988281 134.800781 "/>
<path style="fill:none;stroke-width:1.2;stroke-linecap:butt;stroke-linejoin:miter;stroke:rgb(0%,0%,0%);stroke-opacity:1;stroke-miterlimit:10;" d="M 48.988281 134.800781 L 56.316406 137.707031 "/>
<path style=" stroke:none;fill-rule:nonzero;fill:rgb(100%,100%,100%);fill-opacity:1;" d="M 35.121094 129.980469 L 42.121094 129.980469 L 42.121094 140.980469 L 35.121094 140.980469 Z M 35.121094 129.980469 "/>
<g style="fill:rgb(0%,0%,100%);fill-opacity:1;">
  <use xlink:href="#glyph0-2" x="35.121094" y="138.643555"/>
</g>
<path style="fill:none;stroke-width:1.2;stroke-linecap:butt;stroke-linejoin:miter;stroke:rgb(0%,0%,0%);stroke-opacity:1;stroke-miterlimit:10;" d="M 114.261719 184.011719 L 132.578125 191.269531 "/>
<path style="fill:none;stroke-width:1.2;stroke-linecap:butt;stroke-linejoin:miter;stroke:rgb(0%,0%,0%);stroke-opacity:1;stroke-miterlimit:10;" d="M 114.261719 184.011719 L 98.816406 196.242188 "/>
<path style="fill:none;stroke-width:1.2;stroke-linecap:butt;stroke-linejoin:miter;stroke:rgb(0%,0%,0%);stroke-opacity:1;stroke-miterlimit:10;" d="M 132.578125 191.269531 L 148.019531 179.035156 "/>
<path style="fill:none;stroke-width:1.2;stroke-linecap:butt;stroke-linejoin:miter;stroke:rgb(0%,0%,0%);stroke-opacity:1;stroke-miterlimit:10;" d="M 131.242188 186.410156 L 143.597656 176.625 "/>
<path style="fill:none;stroke-width:1.2;stroke-linecap:butt;stroke-linejoin:miter;stroke:rgb(0%,0%,0%);stroke-opacity:1;stroke-miterlimit:10;" d="M 191.484375 122.84375 L 206.929688 110.609375 "/>
<path style="fill:none;stroke-width:1.2;stroke-linecap:butt;stroke-linejoin:miter;stroke:rgb(0%,0%,0%);stroke-opacity:1;stroke-miterlimit:10;" d="M 206.929688 110.609375 L 225.246094 117.871094 "/>
<path style="fill:none;stroke-width:1.2;stroke-linecap:butt;stroke-linejoin:miter;stroke:rgb(0%,0%,0%);stroke-opacity:1;stroke-miterlimit:10;" d="M 207.050781 115.648438 L 221.707031 121.453125 "/>
</g>
</svg>

<svg xmlns="http://www.w3.org/2000/svg" xmlns:xlink="http://www.w3.org/1999/xlink" width="300pt" height="300pt" viewBox="0 0 300 300"><defs><symbol overflow="visible"><path d="M.453 1.594v-7.938h4.5v7.938zm.5-.5h3.5v-6.938h-3.5zm0 0"/></symbol><symbol overflow="visible" id="a"><path d="M.89-6.563h3.766v.75h-2.89v1.938h2.61v.734h-2.61V0H.89zm0 0"/></symbol><symbol overflow="visible" id="b"><path d="M.89-6.563H2.08l2.906 5.485v-5.484h.86V0H4.656L1.75-5.484V0H.89zm0 0"/></symbol><symbol overflow="visible" id="c"><path d="M.89-6.563h.876v2.688H5v-2.688h.89V0H5v-3.125H1.766V0H.89zm0 0"/></symbol><symbol overflow="visible" id="d"><path d="M3.547-5.953c-.65 0-1.164.242-1.547.72-.375.48-.563 1.13-.563 1.952 0 .835.188 1.49.563 1.967.383.48.898.72 1.547.72.644 0 1.156-.24 1.53-.72.376-.476.564-1.132.564-1.968 0-.822-.187-1.474-.562-1.954-.375-.477-.887-.72-1.53-.72zm0-.734c.914 0 1.648.312 2.203.937.55.617.828 1.438.828 2.47 0 1.042-.277 1.87-.828 2.483-.555.617-1.29.922-2.203.922-.93 0-1.668-.305-2.22-.922C.774-1.41.5-2.237.5-3.28c0-1.033.273-1.853.828-2.47.55-.625 1.29-.938 2.22-.938zm0 0"/></symbol></defs><g><path fill="#fff" d="M0 0h300v300H0z"/><path d="M264.75 151.88l-9.16-3.63" stroke-width="1.2" stroke="#3cc" stroke-miterlimit="10" fill="none"/><path d="M255.59 148.25l-9.156-3.63" stroke-width="1.2" stroke="#000" stroke-miterlimit="10" fill="none"/><path d="M261.75 146.38h6v11h-6zm0 0" fill="#fff"/><use xlink:href="#a" x="261.75" y="155.042" fill="#3cc"/><path d="M246.434 144.62l-3.63 9.157" stroke-width="1.2" stroke="#000" stroke-miterlimit="10" fill="none"/><path d="M242.805 153.777l-3.63 9.16" stroke-width="1.2" stroke="#3cc" stroke-miterlimit="10" fill="none"/><path d="M246.434 144.62l3.63-9.16" stroke-width="1.2" stroke="#000" stroke-miterlimit="10" fill="none"/><path d="M250.063 135.46l3.628-9.155" stroke-width="1.2" stroke="#3cc" stroke-miterlimit="10" fill="none"/><path d="M246.434 144.62l-18.317-7.257" stroke-width="1.2" stroke="#000" stroke-miterlimit="10" fill="none"/><path d="M233.176 157.438h6v11h-6zm0 0" fill="#fff"/><use xlink:href="#a" x="233.176" y="166.101" fill="#3cc"/><path d="M250.69 120.805h6v11h-6zm0 0" fill="#fff"/><use xlink:href="#a" x="250.691" y="129.468" fill="#3cc"/><path d="M228.117 137.363l-15.445 12.23M223.695 134.953l-12.355 9.785M225.246 117.87l2.87 19.493M212.672 149.594l-18.317-7.258M194.355 142.336l-7.722 6.117" stroke-width="1.2" stroke="#000" stroke-miterlimit="10" fill="none"/><path d="M186.633 148.453l-7.723 6.117" stroke-width="1.2" stroke="#00f" stroke-miterlimit="10" fill="none"/><path d="M194.355 142.336l-2.87-19.492M198.656 139.71l-2.3-15.593" stroke-width="1.2" stroke="#000" stroke-miterlimit="10" fill="none"/><path d="M178.91 154.57l-9.156-3.63" stroke-width="1.2" stroke="#00f" stroke-miterlimit="10" fill="none"/><path d="M169.754 150.94l-9.16-3.63" stroke-width="1.2" stroke="#000" stroke-miterlimit="10" fill="none"/><path d="M171.91 149.07h14v11h-14zm0 0" fill="#fff"/><g fill="#00f"><use xlink:href="#b" x="171.91" y="157.733"/><use xlink:href="#c" x="178.888" y="157.733"/></g><path d="M162.887 146.973l-1.434-9.746" stroke-width="1.2" stroke="#000" stroke-miterlimit="10" fill="none"/><path d="M161.453 137.227l-1.437-9.747" stroke-width="1.2" stroke="#f00" stroke-miterlimit="10" fill="none"/><path d="M158.3 147.648l-1.437-9.746" stroke-width="1.2" stroke="#000" stroke-miterlimit="10" fill="none"/><path d="M156.863 137.902l-1.433-9.746" stroke-width="1.2" stroke="#f00" stroke-miterlimit="10" fill="none"/><path d="M160.594 147.31l-15.446 12.233" stroke-width="1.2" stroke="#000" stroke-miterlimit="10" fill="none"/><path d="M153.723 122.32h8v11h-8zm0 0" fill="#fff"/><use xlink:href="#d" x="153.723" y="130.983" fill="#f00"/><path d="M145.148 159.543l-18.316-7.258M141.61 163.13l-14.653-5.81M148.02 179.035l-2.872-19.492M126.832 152.285l-15.445 12.235M111.387 164.52l-18.317-7.262M111.387 164.52l2.875 19.492M116.262 165.793l2.297 15.594M91.633 155.44l-7.723 6.12" stroke-width="1.2" stroke="#000" stroke-miterlimit="10" fill="none"/><path d="M83.91 161.56l-7.722 6.116" stroke-width="1.2" stroke="#f00" stroke-miterlimit="10" fill="none"/><path d="M94.512 159.074l-7.723 6.117" stroke-width="1.2" stroke="#000" stroke-miterlimit="10" fill="none"/><path d="M86.79 165.19l-7.724 6.12" stroke-width="1.2" stroke="#f00" stroke-miterlimit="10" fill="none"/><path d="M93.07 157.258l-1.433-9.746" stroke-width="1.2" stroke="#000" stroke-miterlimit="10" fill="none"/><path d="M91.637 147.512l-1.438-9.746" stroke-width="1.2" stroke="#00f" stroke-miterlimit="10" fill="none"/><path d="M69.625 163.992h8v11h-8zm0 0" fill="#fff"/><use xlink:href="#d" x="69.625" y="172.655" fill="#f00"/><path d="M90.2 137.766l-9.157-3.63" stroke-width="1.2" stroke="#00f" stroke-miterlimit="10" fill="none"/><path d="M81.043 134.137l-9.16-3.63" stroke-width="1.2" stroke="#000" stroke-miterlimit="10" fill="none"/><path d="M83.2 132.266h14v11h-14zm0 0" fill="#fff"/><g fill="#00f"><use xlink:href="#b" x="83.199" y="140.929"/><use xlink:href="#c" x="90.177" y="140.929"/></g><path d="M71.883 130.508l-2.87-19.492M67.008 129.234L64.71 113.64M56.438 142.742l15.445-12.234M69.012 111.016l-9.16-3.63" stroke-width="1.2" stroke="#000" stroke-miterlimit="10" fill="none"/><path d="M59.852 107.387l-9.157-3.63M50.695 103.758l-7.722 6.117" stroke-width="1.2" stroke="#00f" stroke-miterlimit="10" fill="none"/><path d="M42.973 109.875l-7.723 6.113" stroke-width="1.2" stroke="#000" stroke-miterlimit="10" fill="none"/><path d="M52.027 108.613l-6.175 4.895" stroke-width="1.2" stroke="#00f" stroke-miterlimit="10" fill="none"/><path d="M45.852 113.508l-6.18 4.894" stroke-width="1.2" stroke="#000" stroke-miterlimit="10" fill="none"/><path d="M47.695 98.258h7v11h-7zm0 0" fill="#fff"/><use xlink:href="#b" x="47.695" y="106.921" fill="#00f"/><path d="M35.25 115.988l1.438 9.746" stroke-width="1.2" stroke="#000" stroke-miterlimit="10" fill="none"/><path d="M36.688 125.734l1.433 9.746M38.12 135.48l9.16 3.633" stroke-width="1.2" stroke="#00f" stroke-miterlimit="10" fill="none"/><path d="M47.28 139.113l9.157 3.63" stroke-width="1.2" stroke="#000" stroke-miterlimit="10" fill="none"/><path d="M41.66 131.898l7.328 2.903" stroke-width="1.2" stroke="#00f" stroke-miterlimit="10" fill="none"/><path d="M48.988 134.8l7.328 2.907" stroke-width="1.2" stroke="#000" stroke-miterlimit="10" fill="none"/><path d="M35.12 129.98h7v11h-7zm0 0" fill="#fff"/><use xlink:href="#b" x="35.121" y="138.644" fill="#00f"/><path d="M114.262 184.012l18.316 7.258M114.262 184.012l-15.446 12.23M132.578 191.27l15.442-12.235M131.242 186.41l12.356-9.785M191.484 122.844l15.446-12.235M206.93 110.61l18.316 7.26M207.05 115.648l14.657 5.805" stroke-width="1.2" stroke="#000" stroke-miterlimit="10" fill="none"/></g></svg>
